X:030 
T:Castlemahon Lasses (reel), The
C:James McEnery (Limerick)
F:file ID: cre.5/030cast_L
B:CRE5.123 (GearrchailÃÂÃÂÃÂÃÂ­ ChaisleÃÂÃÂÃÂÃÂ¡n MaÃÂÃÂÃÂÃÂ­ Tamhnach)
M:4/4
Q:180
R:reel
K:G
(3DEF|G2BG AGBd|gedB AGEF|G2BG AGBd|gedB A2BA|
G2BG AGBd|gedB dega|bgag efge|dBAB G2:|
Bd|g2bg agba|gedB dega|g2bg agea|gedB A2Bd|
g2bg agba|gedB dega|bgag efge|dBAB G2:|

%%%

